src/assets/img/Craft_Icon_ASIC.svg

<svg width="24" height="24" viewBox="0 0 24 24" fill="none" xmlns="http://www.w3.org/2000/svg">
<path d="M7.24226 1.10767H16.8276C16.8496 1.12392 16.8735 1.13728 16.8987 1.14743C17.4274 1.28243 17.7245 1.66211 17.7258 2.21044C17.7258 2.68989 17.7258 3.16948 17.7258 3.64921C17.7258 3.93495 17.5946 4.10448 17.3785 4.10054C17.1624 4.09661 17.0424 3.93015 17.0419 3.63872C17.0419 3.19569 17.0419 2.75222 17.0419 2.30919C17.0419 1.94829 16.9369 1.84038 16.5866 1.84038H7.4725C7.13807 1.84038 7.02874 1.9531 7.02831 2.29826C7.02831 2.98859 7.02831 3.67892 7.02831 4.36925C7.02831 4.43129 7.03645 4.49333 7.04117 4.56411H7.3413C11.363 4.56411 15.3848 4.57154 19.4065 4.55756C20.1564 4.55494 20.6594 5.07574 20.5981 5.76476C20.5783 5.98322 20.5946 6.20823 20.5946 6.43892C20.9496 6.43892 21.2704 6.43193 21.5911 6.43892C22.1759 6.45465 22.6107 6.72161 22.8696 7.26426C22.9155 7.35994 22.9511 7.46043 22.9914 7.55874V19.0278C22.7148 19.8916 22.1021 20.2118 21.2489 20.1542C21.038 20.1402 20.8257 20.1542 20.5946 20.1542C20.5946 20.228 20.5946 20.2769 20.5946 20.3259C20.5946 20.588 20.6101 20.8502 20.5878 21.1101C20.5402 21.6602 20.066 22.0277 19.4258 22.0277H4.64398C4.60111 22.0277 4.55823 22.0277 4.51536 22.0277C3.88423 21.9923 3.47776 21.5554 3.47691 20.9113C3.47691 20.6662 3.47691 20.4211 3.47691 20.152C3.14548 20.152 2.83377 20.1564 2.52249 20.152C1.65297 20.1376 1.08015 19.5455 1.08015 18.6652C1.08015 15.0982 1.09301 11.5312 1.06986 7.9642C1.06471 7.17775 1.61867 6.40004 2.58766 6.43717C2.87707 6.44853 3.16734 6.43717 3.47648 6.43717C3.47648 6.14444 3.47648 5.87705 3.47648 5.61009C3.48119 5.09628 3.8242 4.65543 4.32585 4.59819C4.7546 4.54969 5.19322 4.5711 5.62755 4.56455C5.85994 4.56149 6.09276 4.56455 6.34358 4.56455V4.3024C6.34358 3.59023 6.34358 2.87849 6.34358 2.16631C6.34366 1.93584 6.41856 1.71187 6.55661 1.52931C6.69465 1.34675 6.88809 1.21586 7.10677 1.15704C7.1535 1.14393 7.19724 1.12427 7.24226 1.10767ZM12.0388 5.28459H4.63884C4.26025 5.28459 4.16206 5.38595 4.16206 5.77568V20.8148C4.16206 21.2015 4.26325 21.3063 4.64141 21.3068H19.4215C19.8113 21.3068 19.9086 21.2041 19.9086 20.8012C19.9086 15.7956 19.9086 10.7899 19.9086 5.78398C19.9086 5.38115 19.8139 5.28459 19.419 5.28459H12.0388ZM3.47047 7.16595C3.07687 7.16595 2.69871 7.15415 2.32526 7.17338C2.2155 7.17906 2.09631 7.25464 2.00584 7.32936C1.80861 7.49233 1.76273 7.72258 1.76273 7.97468C1.76502 11.5198 1.76616 15.065 1.76616 18.6101C1.76616 18.6682 1.76402 18.7268 1.76959 18.7849C1.79832 19.078 1.99683 19.376 2.26138 19.4005C2.66012 19.4376 3.06444 19.4101 3.47219 19.4101L3.47047 7.16595ZM20.6023 19.4319C20.9098 19.4319 21.1945 19.4319 21.4796 19.4319C22.0597 19.4319 22.3054 19.1768 22.3054 18.5786C22.3054 15.0542 22.3054 11.5307 22.3054 8.00833C22.3054 7.94323 22.3084 7.87725 22.3028 7.81259C22.2754 7.50063 22.0541 7.19785 21.778 7.17731C21.3921 7.14804 21.0002 7.16988 20.6028 7.16988L20.6023 19.4319Z" fill="#393931"/>
<path d="M12.1855 4.15088C11.9184 4.15088 11.6508 4.15354 11.3837 4.15088C11.0614 4.14689 10.9374 4.01789 10.9365 3.69739C10.9365 3.35871 10.9365 3.02004 10.9365 2.68136C10.9365 2.41982 11.0614 2.27752 11.315 2.27397C11.8999 2.26659 12.4852 2.26659 13.0707 2.27397C13.3261 2.27708 13.4509 2.41804 13.4527 2.67826C13.4553 3.02403 13.4527 3.37024 13.4527 3.71601C13.4527 4.0108 13.3243 4.14423 13.0298 4.15043C12.7492 4.15531 12.4673 4.15088 12.1855 4.15088ZM12.7479 3.41279V3.01383H11.6456V3.41279H12.7479Z" fill="#393931"/>
<path d="M9.69119 3.00066C9.45193 2.99711 9.2888 2.85083 9.28662 2.6376C9.28662 2.41596 9.45149 2.26745 9.70554 2.27056C9.94871 2.27322 10.1084 2.41551 10.1105 2.63007C10.1127 2.84462 9.94001 3.00376 9.69119 3.00066Z" fill="#393931"/>
<path d="M14.6883 3.00063C14.4486 3.00063 14.2838 2.8539 14.2799 2.64156C14.2759 2.41681 14.4408 2.26875 14.6949 2.27052C14.9385 2.27052 15.0994 2.41238 15.1033 2.62516C15.1073 2.84858 14.9367 3.00196 14.6883 3.00063Z" fill="#393931"/>
<path d="M9.68858 4.15047C9.44932 4.14604 9.28749 3.99887 9.28662 3.7852C9.28662 3.56355 9.45367 3.41638 9.70815 3.42037C9.95132 3.42436 10.1101 3.56754 10.1105 3.78298C10.111 3.99842 9.93697 4.15535 9.68858 4.15047Z" fill="#393931"/>
<path d="M14.6966 4.15039C14.4477 4.15305 14.2768 4.00056 14.2798 3.77803C14.2829 3.56347 14.443 3.42339 14.6866 3.42029C14.9406 3.42029 15.1064 3.56569 15.1033 3.78955C15.1003 4.00189 14.9358 4.14818 14.6966 4.15039Z" fill="#393931"/>
<path d="M16.9759 9.09085C17.2547 9.51508 17.5144 9.89499 17.7589 10.2855C17.9037 10.5183 17.8546 10.7257 17.6575 10.8357C17.4705 10.9394 17.2947 10.8676 17.152 10.645C16.9345 10.3086 16.7131 9.97744 16.4943 9.64585L15.0418 11.126C16.1763 12.6141 16.058 14.5092 15.0527 15.7912L16.4882 17.2541C16.8446 16.8497 17.1373 16.3915 17.3561 15.8958C17.7231 15.0838 17.9024 14.1968 17.8803 13.303C17.8803 13.2587 17.8763 13.2144 17.8781 13.17C17.8859 12.9484 18.0286 12.7937 18.2226 12.7937C18.4166 12.7937 18.5663 12.9524 18.5754 13.1678C18.6214 14.1419 18.4505 15.1139 18.0756 16.0111C17.8019 16.6672 17.4278 17.2585 16.9293 17.8415C17.1499 18.0485 17.3708 18.2475 17.5818 18.4572C17.7089 18.5835 17.7337 18.7405 17.6379 18.9005C17.5531 19.0415 17.4204 19.1017 17.2656 19.0592C17.1773 19.0285 17.0979 18.976 17.0346 18.9062C16.8467 18.7143 16.6683 18.5126 16.506 18.3357C13.618 20.5411 10.7808 20.5416 7.87838 18.3286C7.72047 18.506 7.54646 18.7103 7.36115 18.9049C7.16974 19.1057 6.96702 19.1243 6.81085 18.9727C6.6425 18.8087 6.6599 18.6092 6.86784 18.3965C7.05576 18.2041 7.24891 18.017 7.43858 17.829C5.28438 15.3909 5.2635 11.5786 7.45293 9.10105C7.23891 8.89758 7.01792 8.69588 6.80781 8.48531C6.74947 8.4337 6.71114 8.36255 6.69973 8.28468C6.68833 8.20682 6.70459 8.12736 6.7456 8.06064C6.82434 7.91834 6.95397 7.84697 7.11058 7.88554C7.19973 7.91202 7.28074 7.96131 7.34592 8.02872C7.53689 8.21934 7.71699 8.42104 7.89099 8.60811C10.7682 6.40361 13.6128 6.40095 16.5073 8.60811C16.6705 8.43079 16.8484 8.22953 17.0354 8.0367C17.2225 7.84387 17.4326 7.82348 17.5866 7.97863C17.7406 8.13378 17.7319 8.33858 17.5357 8.53984C17.3465 8.73223 17.1512 8.91797 16.9759 9.09085ZM9.35569 15.8147C8.83063 15.1254 8.54613 14.3519 8.54613 13.4701C8.54307 12.6296 8.82092 11.813 9.33394 11.1548L7.90535 9.6955C5.88601 11.986 6.20226 15.441 7.93754 17.2594L9.35569 15.8147ZM9.89467 10.5803C10.5454 10.0432 11.3574 9.75005 12.1948 9.75005C13.0322 9.75005 13.8443 10.0432 14.495 10.5803L15.9201 9.12809C13.8564 7.14967 10.3736 7.25916 8.47261 9.13961L9.89467 10.5803ZM8.47304 17.8228C10.6342 19.8425 14.0613 19.6346 15.917 17.8091L14.5111 16.3719C12.9707 17.4757 11.4259 17.4802 9.89119 16.3813L8.47304 17.8228ZM9.85117 15.2708L11.6256 13.471L9.86074 11.658C9.04378 12.6713 9.04552 14.3058 9.85117 15.2708ZM10.425 15.8435C11.208 16.6738 13.1464 16.6756 13.9686 15.8435L12.1985 14.0389L10.425 15.8435ZM12.1789 12.9218L13.9625 11.0941C12.9694 10.2075 11.2376 10.3135 10.4097 11.1225L12.1789 12.9218ZM12.7305 13.4657L14.5224 15.289C15.3924 14.2384 15.3097 12.5561 14.5128 11.6575L12.7305 13.4657Z" fill="#393931"/>
<path d="M17.9669 11.9934C17.7494 11.9988 17.5819 11.8121 17.5802 11.559C17.5791 11.5114 17.5874 11.464 17.6046 11.4197C17.6219 11.3754 17.6478 11.3351 17.6807 11.3012C17.7135 11.2673 17.7528 11.2405 17.7961 11.2224C17.8394 11.2043 17.8858 11.1953 17.9325 11.196C18.1353 11.196 18.3001 11.3839 18.3114 11.6246C18.3133 11.6721 18.3058 11.7194 18.2894 11.7639C18.2729 11.8083 18.2479 11.8489 18.2158 11.8833C18.1836 11.9177 18.1451 11.9452 18.1023 11.9641C18.0596 11.983 18.0135 11.993 17.9669 11.9934Z" fill="#393931"/>
</svg>

<?xml version="1.0" encoding="utf-8"?>
<!-- Generator: Adobe Illustrator 27.1.1, SVG Export Plug-In . SVG Version: 6.00 Build 0)  -->
<svg version="1.1" id="Слой_1" xmlns="http://www.w3.org/2000/svg" xmlns:xlink="http://www.w3.org/1999/xlink" x="0px" y="0px"
	 viewBox="0 0 24 24" style="enable-background:new 0 0 24 24;" xml:space="preserve">
<style type="text/css">
	.st0{fill:#393931;}
</style>
<path class="st0" d="M7.2,1.1h9.6c0,0,0,0,0.1,0c0.5,0.1,0.8,0.5,0.8,1.1c0,0.5,0,1,0,1.4c0,0.3-0.1,0.5-0.3,0.5
	c-0.2,0-0.3-0.2-0.3-0.5c0-0.4,0-0.9,0-1.3c0-0.4-0.1-0.5-0.5-0.5H7.5C7.1,1.8,7,2,7,2.3C7,3,7,3.7,7,4.4c0,0.1,0,0.1,0,0.2h0.3
	c4,0,8,0,12.1,0c0.7,0,1.3,0.5,1.2,1.2c0,0.2,0,0.4,0,0.7c0.4,0,0.7,0,1,0c0.6,0,1,0.3,1.3,0.8c0,0.1,0.1,0.2,0.1,0.3V19
	c-0.3,0.9-0.9,1.2-1.7,1.1c-0.2,0-0.4,0-0.7,0c0,0.1,0,0.1,0,0.2c0,0.3,0,0.5,0,0.8c0,0.6-0.5,0.9-1.2,0.9H4.6c0,0-0.1,0-0.1,0
	c-0.6,0-1-0.5-1-1.1c0-0.2,0-0.5,0-0.8c-0.3,0-0.6,0-1,0c-0.9,0-1.4-0.6-1.4-1.5c0-3.6,0-7.1,0-10.7c0-0.8,0.5-1.6,1.5-1.5
	c0.3,0,0.6,0,0.9,0c0-0.3,0-0.6,0-0.8c0-0.5,0.3-1,0.8-1c0.4,0,0.9,0,1.3,0c0.2,0,0.5,0,0.7,0V4.3c0-0.7,0-1.4,0-2.1
	c0-0.2,0.1-0.5,0.2-0.6c0.1-0.2,0.3-0.3,0.6-0.4C7.2,1.1,7.2,1.1,7.2,1.1z M12,5.3H4.6c-0.4,0-0.5,0.1-0.5,0.5v15
	c0,0.4,0.1,0.5,0.5,0.5h14.8c0.4,0,0.5-0.1,0.5-0.5c0-5,0-10,0-15c0-0.4-0.1-0.5-0.5-0.5H12z M3.5,7.2c-0.4,0-0.8,0-1.1,0
	C2.2,7.2,2.1,7.3,2,7.3C1.8,7.5,1.8,7.7,1.8,8c0,3.5,0,7.1,0,10.6c0,0.1,0,0.1,0,0.2c0,0.3,0.2,0.6,0.5,0.6c0.4,0,0.8,0,1.2,0
	L3.5,7.2z M20.6,19.4c0.3,0,0.6,0,0.9,0c0.6,0,0.8-0.3,0.8-0.9c0-3.5,0-7,0-10.6c0-0.1,0-0.1,0-0.2c0-0.3-0.2-0.6-0.5-0.6
	c-0.4,0-0.8,0-1.2,0L20.6,19.4z"/>
<path class="st0" d="M12.2,4.2c-0.3,0-0.5,0-0.8,0c-0.3,0-0.4-0.1-0.4-0.5c0-0.3,0-0.7,0-1c0-0.3,0.1-0.4,0.4-0.4c0.6,0,1.2,0,1.8,0
	c0.3,0,0.4,0.1,0.4,0.4c0,0.3,0,0.7,0,1c0,0.3-0.1,0.4-0.4,0.4C12.7,4.2,12.5,4.2,12.2,4.2z M12.7,3.4V3h-1.1v0.4H12.7z"/>
<path class="st0" d="M9.7,3C9.5,3,9.3,2.9,9.3,2.6c0-0.2,0.2-0.4,0.4-0.4c0.2,0,0.4,0.1,0.4,0.4C10.1,2.8,9.9,3,9.7,3z"/>
<path class="st0" d="M14.7,3c-0.2,0-0.4-0.1-0.4-0.4c0-0.2,0.2-0.4,0.4-0.4c0.2,0,0.4,0.1,0.4,0.4C15.1,2.8,14.9,3,14.7,3z"/>
<path class="st0" d="M9.7,4.2C9.4,4.1,9.3,4,9.3,3.8c0-0.2,0.2-0.4,0.4-0.4c0.2,0,0.4,0.1,0.4,0.4C10.1,4,9.9,4.2,9.7,4.2z"/>
<path class="st0" d="M14.7,4.2c-0.2,0-0.4-0.1-0.4-0.4c0-0.2,0.2-0.4,0.4-0.4c0.3,0,0.4,0.1,0.4,0.4C15.1,4,14.9,4.1,14.7,4.2z"/>
<path class="st0" d="M17,9.1c0.3,0.4,0.5,0.8,0.8,1.2c0.1,0.2,0.1,0.4-0.1,0.6c-0.2,0.1-0.4,0-0.5-0.2c-0.2-0.3-0.4-0.7-0.7-1
	L15,11.1c1.1,1.5,1,3.4,0,4.7l1.4,1.5c0.4-0.4,0.6-0.9,0.9-1.4c0.4-0.8,0.5-1.7,0.5-2.6c0,0,0-0.1,0-0.1c0-0.2,0.2-0.4,0.3-0.4
	c0.2,0,0.3,0.2,0.4,0.4c0,1-0.1,1.9-0.5,2.8c-0.3,0.7-0.6,1.2-1.1,1.8c0.2,0.2,0.4,0.4,0.7,0.6c0.1,0.1,0.2,0.3,0.1,0.4
	c-0.1,0.1-0.2,0.2-0.4,0.2c-0.1,0-0.2-0.1-0.2-0.2c-0.2-0.2-0.4-0.4-0.5-0.6c-2.9,2.2-5.7,2.2-8.6,0c-0.2,0.2-0.3,0.4-0.5,0.6
	C7.2,19.1,7,19.1,6.8,19c-0.2-0.2-0.2-0.4,0.1-0.6c0.2-0.2,0.4-0.4,0.6-0.6c-2.2-2.4-2.2-6.3,0-8.7C7.2,8.9,7,8.7,6.8,8.5
	C6.7,8.4,6.7,8.4,6.7,8.3c0-0.1,0-0.2,0-0.2C6.8,7.9,7,7.8,7.1,7.9C7.2,7.9,7.3,8,7.3,8c0.2,0.2,0.4,0.4,0.5,0.6
	c2.9-2.2,5.7-2.2,8.6,0C16.7,8.4,16.8,8.2,17,8c0.2-0.2,0.4-0.2,0.6-0.1c0.2,0.2,0.1,0.4-0.1,0.6C17.3,8.7,17.2,8.9,17,9.1z
	 M9.4,15.8c-0.5-0.7-0.8-1.5-0.8-2.3c0-0.8,0.3-1.7,0.8-2.3L7.9,9.7c-2,2.3-1.7,5.7,0,7.6L9.4,15.8z M9.9,10.6
	c0.7-0.5,1.5-0.8,2.3-0.8c0.8,0,1.6,0.3,2.3,0.8l1.4-1.5c-2.1-2-5.5-1.9-7.4,0L9.9,10.6z M8.5,17.8c2.2,2,5.6,1.8,7.4,0l-1.4-1.4
	c-1.5,1.1-3.1,1.1-4.6,0L8.5,17.8z M9.9,15.3l1.8-1.8l-1.8-1.8C9,12.7,9,14.3,9.9,15.3z M10.4,15.8c0.8,0.8,2.7,0.8,3.5,0L12.2,14
	L10.4,15.8z M12.2,12.9l1.8-1.8c-1-0.9-2.7-0.8-3.6,0L12.2,12.9z M12.7,13.5l1.8,1.8c0.9-1.1,0.8-2.7,0-3.6L12.7,13.5z"/>
<path class="st0" d="M18,12c-0.2,0-0.4-0.2-0.4-0.4c0,0,0-0.1,0-0.1c0,0,0-0.1,0.1-0.1c0,0,0.1-0.1,0.1-0.1c0,0,0.1,0,0.1,0
	c0.2,0,0.4,0.2,0.4,0.4c0,0,0,0.1,0,0.1c0,0,0,0.1-0.1,0.1c0,0-0.1,0.1-0.1,0.1C18.1,12,18,12,18,12z"/>
</svg>
